X: 1
T: Belle Jigue  Baptiste
M: 6/8
L: 1/8
R: jig
K: Gmaj
D|:GFG BAG|cBc edB|dBB {d}BAG|FDA FED|
GFG BAG|cBc edB|dBd ABc|1dBG {A}G2D:|2dBG {A}Gef||
gag {fg}fed|cBc edB|dBB {d}BAG|FDA FED|
gag {fg}fed|cBc edB|dBd ABc|dBG{A}Gef|
gag {fg}fed|cBc edB|dBB {d}BAG|FDA FED|
GFG BAG|cBc edB|dBd ABc|dBG {A}G2 D||
